icons/1_Primary/Hack The Box.svg

<svg xmlns="http://www.w3.org/2000/svg" width="1024" height="1024" fill="none">
   <g clip-path="url(#a)">
      <path fill="#98DC9A" d="M512 1024c282.77 0 512-229.23 512-512S794.77 0 512 0 0 229.23 0 512s229.23 512 512 512Z"/>
      <path fill="#fff" d="M506.5 256.6c2.9-.8 5.9-.7 8.9-.4 3.8.4 7 2.8 10.3 4.6 66.5 38.4 133 76.9 199.6 115.3 6.4 3.2 11.1 10 10.7 17.4v237.7c.2 6.7-4 12.9-9.7 16-67.9 39.2-135.8 78.5-203.7 117.7-6.1 4-14.5 4.1-20.7.3-66.7-38.5-133.3-77-200-115.6-3.3-2-6.9-3.6-9.4-6.6-3.1-3.4-4.7-8-4.5-12.6V392.6c-.2-6.6 4-12.8 9.6-15.9 67.1-38.7 134.1-77.5 201.1-116.2 2.6-1.4 5-3.1 7.8-3.9Zm3.9 47.5c-1.5.2-2.8 1-4.1 1.7-46.2 26.7-92.4 53.3-138.5 80.1-5.5 3.1-5.5 12.1.2 15.1 46.3 26.9 92.7 53.6 139.1 80.4 2.9 1.9 6.9 1.9 9.8 0 46.4-26.8 92.8-53.5 139.1-80.4 5.6-3 5.7-12 .1-15.1-46.3-26.8-92.7-53.6-139.1-80.4-1.9-1.3-4.3-1.8-6.6-1.4ZM336.5 442.4c-3.5 1.3-5.8 5.1-5.6 8.8v159.9c-.1 3.6 2.1 6.9 5.2 8.5 46.2 26.7 92.3 53.4 138.5 80 5.7 3.5 13.6-1.4 13.2-8v-160c.1-3.3-1.6-6.5-4.4-8.2l-138.6-80.1c-2.4-1.5-5.6-2.2-8.3-.9Zm344.8-.1c-4.1 1.9-7.8 4.4-11.8 6.6-42.8 24.7-85.6 49.5-128.4 74.2-3.2 1.6-5.1 5-5 8.6v159.9c-.4 6.6 7.5 11.5 13.2 8.1 46.2-26.7 92.4-53.4 138.5-80 3.1-1.5 5.4-4.9 5.2-8.4V450.5c.1-5.8-6.4-10.4-11.7-8.2Z"/>
   </g>
   <defs>
      <clipPath id="a">
         <path fill="#fff" d="M0 0h1024v1024H0z"/>
      </clipPath>
   </defs>
</svg>

<svg width="1024" height="1024" viewBox="0 0 1024 1024" fill="none" xmlns="http://www.w3.org/2000/svg">
<g clip-path="url(#clip0_2_2361)">
<path d="M512 1024C794.77 1024 1024 794.77 1024 512C1024 229.23 794.77 0 512 0C229.23 0 0 229.23 0 512C0 794.77 229.23 1024 512 1024Z" fill="#98DC9A"/>
<path d="M506.5 256.6C509.4 255.8 512.4 255.9 515.4 256.2C519.2 256.6 522.4 259 525.7 260.8C592.2 299.2 658.7 337.7 725.3 376.1C731.7 379.3 736.4 386.1 736 393.5V631.2C736.2 637.9 732 644.1 726.3 647.2C658.4 686.4 590.5 725.7 522.6 764.9C516.5 768.9 508.1 769 501.9 765.2C435.2 726.7 368.6 688.2 301.9 649.6C298.6 647.6 295 646 292.5 643C289.4 639.6 287.8 635 288 630.4V392.6C287.8 386 292 379.8 297.6 376.7C364.7 338 431.7 299.2 498.7 260.5C501.3 259.1 503.7 257.4 506.5 256.6ZM510.4 304.1C508.9 304.3 507.6 305.1 506.3 305.8C460.1 332.5 413.9 359.1 367.8 385.9C362.3 389 362.3 398 368 401C414.3 427.9 460.7 454.6 507.1 481.4C510 483.3 514 483.3 516.9 481.4C563.3 454.6 609.7 427.9 656 401C661.6 398 661.7 389 656.1 385.9C609.8 359.1 563.4 332.3 517 305.5C515.1 304.2 512.7 303.7 510.4 304.1ZM336.5 442.4C333 443.7 330.7 447.5 330.9 451.2V611.1C330.8 614.7 333 618 336.1 619.6C382.3 646.3 428.4 673 474.6 699.6C480.3 703.1 488.2 698.2 487.8 691.6V531.6C487.9 528.3 486.2 525.1 483.4 523.4L344.8 443.3C342.4 441.8 339.2 441.1 336.5 442.4ZM681.3 442.3C677.2 444.2 673.5 446.7 669.5 448.9C626.7 473.6 583.9 498.4 541.1 523.1C537.9 524.7 536 528.1 536.1 531.7V691.6C535.7 698.2 543.6 703.1 549.3 699.7C595.5 673 641.7 646.3 687.8 619.7C690.9 618.2 693.2 614.8 693 611.3V450.5C693.1 444.7 686.6 440.1 681.3 442.3Z" fill="white"/>
</g>
<defs>
<clipPath id="clip0_2_2361">
<rect width="1024" height="1024" fill="white"/>
</clipPath>
</defs>
</svg>
